remix/Design/paint-line.svg

<svg viewBox="0 0 24 24" fill="currentColor" xmlns="http://www.w3.org/2000/svg"><path d="M19.2277 18.7323L20.9955 16.9645L22.7632 18.7323C23.7395 19.7086 23.7395 21.2915 22.7632 22.2678C21.7869 23.2441 20.204 23.2441 19.2277 22.2678C18.2514 21.2915 18.2514 19.7086 19.2277 18.7323ZM8.87861 1.07971L20.1923 12.3934C20.5828 12.7839 20.5828 13.4171 20.1923 13.8076L11.707 22.2929C11.3165 22.6834 10.6833 22.6834 10.2928 22.2929L1.80754 13.8076C1.41702 13.4171 1.41702 12.7839 1.80754 12.3934L9.58572 4.61525L7.4644 2.49393L8.87861 1.07971ZM10.9999 6.02946L3.92886 13.1005L10.9999 20.1716L18.071 13.1005L10.9999 6.02946Z"/></svg>

<svg viewBox="0 0 24 24" xmlns="http://www.w3.org/2000/svg"><path fill="none" d="M0 0h24v24H0Z"/><path d="M19.22 18.732l1.76-1.77 1.76 1.76v0c.97.97.97 2.55 0 3.53 -.98.97-2.56.97-3.54 0 -.98-.98-.98-2.56-.01-3.54 0-.01 0-.01 0-.01ZM8.87 1.08L20.18 12.39v0c.39.39.39 1.02 0 1.41 -.01 0-.01 0-.01 0l-8.49 8.485v0c-.4.39-1.03.39-1.42 0l-8.49-8.49h0c-.4-.4-.4-1.03-.01-1.42 0-.01 0-.01 0-.01l7.77-7.78L7.41 2.46l1.41-1.42Zm2.122 4.95L3.92 13.1l7.071 7.07 7.07-7.08 -7.08-7.073Z"/></svg>
